X:236
T:Reel 236
M:4/4
K:Dmaj
L:1/8
 (3ABc |d2cA BAGF|EFGE CEEG|Ad (3dcd AGEG|| (3Bcd ce fdcB:||2 (3ABc dA eddd|d|fdAd fdad|cdef gBce| (3ddd fd adfd|cdeg fdde| (3ded ec dAAd|cdef g2fg| (3agf ge fdec|cABc dfed|
